X:2974
T:N\oringen
C:anon.
O:Norway
A:Voss
R:Sl\aattestev
Z:Transcribed by Frank Nordberg - http://www.musicaviva.com
F:http://abc.musicaviva.com/tunes/norway/noeringen/noeringen-1.abc
M:6/8
L:1/8
Q:3/8=92
K:Bb
F|:"Bb"B3 "Bb/D"B2A|"Eb"G3 "Eb/D"GGA|"Cm"ccc "C7/E"c2A|"F"F3 "F/A"F2F|
w:Eg ser deg, eg ser deg, men eg kan ik-kje ko-ma te deg. Eg
"Bb"B3 "Bb/D"B2A|"Eb"G3 "Eb/D"GGA|"Bb/F"Bcd "F"(Bc)A|"Bsus4"B3 B2"Bb"F:|
w:ser deg, eg ser deg, men eg kan ik-kje ko--ma te deg. Og
"Bb"Bcd "Eb/Bb"dcd|"Bb"cBd "F"F2F|"Bb"Bcd "Eb/Bb"dcA|"Bb"Bcd "F"F2F|
w:had-de eg \aa-rer og b\aa-ten va go, of fjor-tan te sty-re og syt-tan te ro, d\aa
"Bb"BBB B2A|"Eb/Bb"G3 G2A|"Bb"c3 "F"c2A|"Bb"F3 F2F|
w:skul-de eg ko-ma te deg, ja te deg, ja te deg, d\aa
"Bb"BBB "F"B2A|"Bb/D"(A2G) "Eb"G2A|"Bb/F"Bcd "F7"BcA|"Bbsus4"B3 "Bb"B2 z|]
w:skul-de eg ko-ma te_ deg, eg veit no so vel ka du ve meg.
W:
W:Eg ser deg, eg ser deg,
W:men eg kan ikkje koma te deg.
W:Eg ser deg, eg ser deg,
W:men eg kan ikkje koma te deg.
W:Og hadde eg \aarer og b\aaten va go,
W:of fjortan te styre og syttan te ro,
W:d\aa skulde eg koma te deg,
W:ja te deg, ja te deg,
W:d\aa skulde eg koma te deg,
W:eg veit no so vel ka du ve meg.
W:
W:
W:  From Musica Viva - http://www.musicaviva.com
W:  the Internet center for free sheet music downloads.

